X: 1
T: Farewell To Whiskey
M: 2/4
K: Gmaj
L: 1/12
|: D2 G2 BAGA | B2 E2 EGFE | D2 G2 BAGA | d2 B2 B2 d2 |
efge d2 B2 | cBAG A2 B2 | D2 G2 BAGA | B2 G2 G4 :|
|: d2 Bd g2 d2 | efge d2 B2 | d2 Bd g2 d2 | e2 f2 g4 |
efge d2 B2 | cBAG A2 B2 | D2 G2 BAGA | B2 G2 G4 :|
|:EG G/B/A/G/|BE EG/E/|DG B/A/G/A/|d2 Bd|
e/f/g/e/ dB|c/B/A/G/ AB|DG B/A/G/A/|BG G2:|
|:dB/d/ gf/g/|e/f/g/e/ dB|dB/d/ gf/g/|ef g2|
e/f/g/e/ dB|c/B/A/G/ AB|DG B/A/G/A/|BG G2:|
A>B AG|FA de|fa/f/ ef/e/|dB Bd|
A>B AG|FA de|fa/f/ ef/e/|1d2 dB:|2d2 de||
|fa af|gb ba|fa/f/ ef/e/|dB Bd|
fa af|gb b>c'|d'/c'/b c'a|b2 bc'|
d'b c'a|ba fe|fa/f/ ef/e/|dB Bd|
A>B AG|FA de|fa/f/ ef/e/|d4 d2||
